X: 13928
T: Foxhunters, The
R: reel
M: 4/4
K: Amajor
eAcA eAcA|eAcA BAFA|eAcA eAcA|(3Bcd cA BAFA|
eAcA eAcA|eAcA BAFA|ce (3eee fcec|(3Bcd cA BAFA||
|:E3c cBAF|~E2 cA BAFA|E3c cBAc|(3Bcd cA BAFA:|
afec AB (3cBA|aece f~B3|afec AB (3cBA|Bcde f~B3|
afec AB (3cBA|aece fb (3bbb|aBgB fBec|Bcde fBcd||
eaag a3f|e~a3 (3fga ec|eaag abae|(3fga ec ~B2cd|
eaag a3f|e~a3 (3fga ec|eaag abae|(3fga ec BdcB||
|:A2cA eAcB|A~c3 BABc|(3AAA Ac eAce|(3fga ec BdcB:|

